svg/Pictogram/pictograms-aem-0110-do_not_loosen_cap_until_cool.svg

<svg viewBox="0 0 305.91 305.91"><g transform="matrix(1.35328 0 0 1.35328-53.21-52.19)" fill-rule="evenodd"><path d="m233.01 97.38l-23.762 20.582c-4.922 3.922-9.844 5.066-15.778 5.328-5.929.254-78.54-4.594-78.54-4.594 0 0-1.941 10.57 6.668 11.867 8.614 1.309 12.473 1.703 12.473 1.703l-27.23 10.09c0 0 3.386 10.899 10.976 8.528 7.602-2.364 33.05-10.719 33.05-10.719l-41.5 24.926c3.758 6.808 8.461 8.914 14.383 5.882 5.914-3.035 32.64-18.972 34.855-20.453 2.223-1.504 4.289-2.14 6.418-1.211 2.129.93 20.551 5.157 20.551 5.157 0 0-17.289 2.597-21.19 3.414-3.898.812-11.621 6.816-8.836 15.527 0 0 40.938-5.203 46.32-6.098 5.371-.875 14.711-3.789 19.214-9.183 4.512-5.403 5.829-7.403 8.192-9.735 2.351-2.332 13.695-14.246 13.695-14.246l-9.972-36.769"/><path d="m152.35 229.28c.968 1.054.597 3.23.289 3.918.004-.008-1.727 4.054-1.727 4.054l1.211.5 1.707-4.01c.508-1.129.871-3.839-.516-5.351l-.964.887"/><path d="m157.3 228.72l.101.235c.661 1.57.481 3.101.223 4.39-.152.735-.992 3.094-1.301 3.938l1.231.449c.047-.125 1.144-3.141 1.351-4.125.281-1.399.504-3.25-.297-5.168-.007-.012-.113-.25-.113-.25-.43-.969-.801-1.801-.59-3.203l-1.293-.199c-.269 1.785.239 2.925.688 3.933"/><path d="m163.14 228.94c.653 1.621.461 3.203.219 4.402-.14.738-.98 3.094-1.289 3.938l1.227.453c.047-.129 1.156-3.153 1.347-4.137.278-1.371.493-3.199-.289-5.148-.726-1.75-1.336-4-.383-7.5l-1.261-.344c-1.059 3.875-.375 6.39.429 8.336"/><path d="m167.34 224.91c.097 1.758.593 3.141.957 4.03.64 1.574.476 3.113.234 4.41-.16.723-.996 3.086-1.301 3.934l1.231.445c.047-.129 1.137-3.141 1.351-4.117.286-1.504.465-3.274-.304-5.168-.528-1.289-.793-2.399-.86-3.602l-1.308.07"/><path d="m173.41 215.65c.234.965.324 3.484-.223 4.707-1.55 3.504-.632 6.578.196 8.586.66 1.64.464 3.211.218 4.398-.148.739-.98 3.098-1.289 3.946l1.231.445c.047-.129 1.14-3.145 1.344-4.125.257-1.262.511-3.168-.293-5.16-.735-1.789-1.555-4.516-.207-7.559.703-1.582.57-4.406.296-5.543l-1.273.305"/><path d="m178.74 214.09c.422.985.695 4.649.328 5.571-1.652 4.121-1.324 6.519-.203 9.277.672 1.644.481 3.219.238 4.402-.152.739-.992 3.098-1.3 3.942l1.23.449c.047-.125 1.149-3.141 1.352-4.125.258-1.262.508-3.168-.309-5.164-1.019-2.504-1.289-4.567.207-8.297.535-1.336.168-5.379-.336-6.57l-1.207.515"/><path d="m184.06 217.68c.032 1.063-.07 1.738-.168 1.992-1.66 4.102-1.328 6.508-.191 9.27.648 1.601.473 3.125.215 4.402-.149.735-.981 3.094-1.289 3.938l1.23.449c.047-.125 1.145-3.145 1.344-4.129.277-1.383.496-3.215-.289-5.156-1.031-2.512-1.305-4.575.199-8.297.266-.711.278-1.875.258-2.504l-1.309.035"/><path d="m189.75 217.84c.035 1.059-.063 1.703-.168 1.953-1.695 4.239-1.422 6.485-.324 9.149.672 1.656.472 3.219.222 4.394-.152.743-.988 3.102-1.296 3.946l1.23.449c.047-.125 1.145-3.141 1.348-4.125.265-1.25.523-3.149-.293-5.16-.989-2.403-1.207-4.321.328-8.16.262-.637.289-1.704.262-2.489l-1.309.043"/><path d="m194.19 228.64c.508 1.758.586 4.18.336 5.332-.144.758-.812 2.649-1.054 3.313l1.23.453c.035-.106.914-2.508 1.106-3.504.32-1.481.16-4.16-.364-5.965-.656-2.203-.816-3.613-.027-6.145l-1.25-.386c-.879 2.82-.684 4.539.023 6.902"/><path d="m198.81 227.99l.192.64c.511 1.766.593 4.188.351 5.34-.148.75-.82 2.641-1.066 3.309l1.23.453c.036-.102.922-2.504 1.118-3.5.316-1.485.144-4.164-.375-5.965 0-.004-.2-.66-.2-.66-.523-1.731-.718-2.375-.015-4.629l-1.25-.391c-.825 2.637-.528 3.617.015 5.403"/><path d="m205.34 217.83c.031 1.368-.118 1.848-.164 1.965-1.692 4.215-1.422 6.461-.336 9.141.683 1.664.48 3.223.23 4.398-.144.746-.976 3.102-1.289 3.946l1.231.453c.046-.129 1.152-3.153 1.339-4.141.266-1.238.528-3.137-.3-5.152-.977-2.41-1.196-4.336.339-8.156.2-.493.286-1.329.258-2.485l-1.308.031"/><path d="m208.72 224.91c.066 1.355.371 2.636.957 4.03.656 1.633.464 3.207.226 4.398-.152.735-.984 3.094-1.289 3.942l1.231.445c.046-.129 1.136-3.145 1.339-4.125.278-1.371.493-3.195-.296-5.16-.332-.797-.782-2.024-.86-3.598l-1.308.063"/><path d="m215.71 216.33c.086 1.684-.098 3.036-.547 4.02-1.57 3.508-.633 6.586.207 8.598.648 1.613.457 3.199.219 4.398-.149.735-.989 3.094-1.297 3.938l1.226.453c.047-.129 1.153-3.145 1.356-4.129.273-1.383.488-3.215-.293-5.16-.75-1.793-1.586-4.52-.227-7.555.547-1.187.762-2.703.664-4.629l-1.308.07"/><path d="m220.22 228.63c.508 1.719.594 4.153.356 5.348-.145.742-.824 2.633-1.074 3.297l1.226.461c.039-.102.938-2.508 1.133-3.504.266-1.34.195-4-.383-5.969-.644-2.227-.797-3.645-.015-6.145l-1.25-.39c-.879 2.805-.696 4.457.007 6.902"/><path d="m225.51 228.63c.519 1.746.597 4.168.347 5.336-.14.758-.812 2.645-1.058 3.313l1.226.453c.039-.102.93-2.508 1.114-3.508.281-1.301.222-3.965-.372-5.965-.648-2.23-.804-3.648-.019-6.141l-1.246-.39c-.883 2.797-.699 4.453.008 6.902"/><path d="m230.96 228.94c.652 1.629.461 3.207.222 4.402-.148.735-.988 3.094-1.3 3.938l1.23.453c.047-.129 1.152-3.149 1.352-4.133.277-1.371.496-3.195-.293-5.156-.45-1.086-.938-2.516-.739-3.981l-1.296-.176c-.243 1.774.312 3.418.824 4.653"/><path d="m235.05 227.62l.722 2.343c.66 1.586.489 3.114.231 4.399-.141.715-.781 2.332-1.016 2.894l1.207.508c.035-.09.899-2.16 1.094-3.148.277-1.391.496-3.235-.301-5.145.004.008-.652-2.109-.652-2.109l-1.285.258"/><path d="m241.76 234.35c-.153.719-.793 2.34-1.024 2.906l1.211.5c.035-.09.883-2.152 1.094-3.137 0 0 .242-1.921.242-1.921l-1.309-.055-.214 1.707"/><path d="m130.62 187.36l-2.113.848 16.789 16.516 2.09-2.125c0 0-10.95-10.77-13.539-13.321 3.355-1.343 17.211-6.894 17.211-6.894l-1.11-2.766-19.328 7.742"/><path d="m58.863 202.97c0 11.07 26.2 17.04 50.851 17.04 24.652 0 50.851-5.972 50.851-17.04 0-6.75-10.531-12.477-28.18-15.321l-.473 2.942c15.351 2.476 25.668 7.453 25.668 12.379 0 6.649-19.66 14.06-47.871 14.06-28.21 0-47.871-7.41-47.871-14.06 0-4.926 10.324-9.903 25.688-12.379l-.473-2.942c-17.656 2.844-28.2 8.575-28.2 15.321"/><path d="m93.05 199.53c-.059-.078-.137.024-.137-.058 0-1.29 7.516-2.321 16.801-2.321 9.304 0 16.812 1.031 16.812 2.321 0 .046-.008.097-.031.144 0 0-4.727 1.461-16.539 1.461-12.859 0-16.906-1.547-16.906-1.547"/><path d="m126.53 201.5v7.746c0 1.305-7.508 2.368-16.812 2.368-9.285 0-16.801-1.063-16.801-2.368v-7.746c0 0 5.293 1.5 17.332 1.5 12.04 0 16.281-1.5 16.281-1.5"/><path d="m225.87 66.18l-8.106-7.926-72.843 74.48-72.844-74.48-8.105 7.926 73.02 74.67-73.02 74.67 8.105 7.926 72.84-74.49 72.843 74.49 8.106-7.926-73.02-74.67 73.02-74.67" fill="#d90000"/><path d="m125.82 239v2.657h-31.503v-2.657h-39.965v11.555h212.01v-11.555h-140.54"/><path d="m125.82 241.65v-14.824h-31.503v14.824h31.503"/></g></svg>

<?xml version="1.0" encoding="ISO-8859-1" standalone="yes"?>
<svg height="305.909" width="305.909">
  <metadata>
    <rdf:RDF xmlns:cc="http://web.resource.org/cc/" xmlns:dc="http://purl.org/dc/elements/1.1/" xmlns:rdf="http://www.w3.org/1999/02/22-rdf-syntax-ns#">
      <cc:Work rdf:about="">
        <dc:title></dc:title>
        <dc:description></dc:description>
        <dc:subject>
          <rdf:Bag>
            <rdf:li></rdf:li>
          </rdf:Bag>
        </dc:subject>
        <dc:publisher>
          <cc:Agent rdf:about="http://www.unece.org/trans/danger/publi/ghs/pictograms.html">
            <dc:title>Source: UNECE GHS of Classification and Labeling of Chemicals, Source: AEM Pictorial Database, Source: AEM Pictorial Database, Source: AEM Pictorial Database, Source: AEM Pictorial Database</dc:title>
          </cc:Agent>
        </dc:publisher>
        <dc:creator>
          <cc:Agent>
            <dc:title></dc:title>
          </cc:Agent>
        </dc:creator>
        <dc:rights>
          <cc:Agent>
            <dc:title></dc:title>
          </cc:Agent>
        </dc:rights>
        <dc:date></dc:date>
        <dc:format>image/svg+xml</dc:format>
        <dc:type rdf:resource="http://purl.org/dc/dcmitype/StillImage"/>
        <cc:license rdf:resource="http://en.wikipedia.org/wiki/Public_domain"/>
        <dc:language>en</dc:language>
      </cc:Work>
    </rdf:RDF>
  </metadata>
  <defs><marker id="ArrowEnd" markerHeight="3" markerUnits="strokeWidth" markerWidth="4" orient="auto" refX="0" refY="5" viewBox="0 0 10 10"><path d="M 0 0 L 10 5 L 0 10 z"/></marker><marker id="ArrowStart" markerHeight="3" markerUnits="strokeWidth" markerWidth="4" orient="auto" refX="10" refY="5" viewBox="0 0 10 10"><path d="M 10 0 L 0 5 L 10 10 z"/></marker> </defs>
  <g id="g2958" transform="matrix(1.3532768,0,0,1.3532781,-53.207834,-52.192858)">
    <path d="M 233.015 97.3824L 209.253 117.964C 204.331 121.886 199.409 123.03 193.475 123.292C 187.546 123.546 114.932 118.698 114.932 118.698C 114.932 118.698 112.991 129.268 121.6 130.565C 130.214 131.874 134.073 132.268 134.073 132.268L 106.847 142.362C 106.847 142.362 110.233 153.261 117.823 150.89C 125.425 148.526 150.878 140.171 150.878 140.171L 109.378 165.097C 113.136 171.905 117.839 174.011 123.761 170.979C 129.675 167.944 156.401 152.007 158.616 150.526C 160.839 149.022 162.905 148.386 165.034 149.315C 167.163 150.245 185.585 154.472 185.585 154.472C 185.585 154.472 168.296 157.069 164.397 157.886C 160.499 158.698 152.776 164.702 155.561 173.413C 155.561 173.413 196.499 168.21 201.886 167.315C 207.257 166.44 216.597 163.526 221.1 158.132C 225.612 152.729 226.929 150.729 229.292 148.397C 231.643 146.065 242.987 134.151 242.987 134.151L 233.015 97.3824" style="stroke:none; fill-rule:evenodd; fill:#000000"/>
    <path d="M 152.347 229.285C 153.315 230.339 152.944 232.515 152.636 233.203C 152.64 233.195 150.909 237.257 150.909 237.257L 152.12 237.757L 153.827 233.749C 154.335 232.62 154.698 229.91 153.311 228.398L 152.347 229.285" style="stroke:none; fill-rule:evenodd; fill:#000000"/>
    <path d="M 157.296 228.718L 157.397 228.953C 158.058 230.523 157.878 232.054 157.62 233.343C 157.468 234.078 156.628 236.437 156.319 237.281L 157.55 237.73C 157.597 237.605 158.694 234.589 158.901 233.605C 159.182 232.206 159.405 230.355 158.604 228.437C 158.597 228.425 158.491 228.187 158.491 228.187C 158.061 227.218 157.69 226.386 157.901 224.984L 156.608 224.785C 156.339 226.57 156.847 227.71 157.296 228.718" style="stroke:none; fill-rule:evenodd; fill:#000000"/>
    <path d="M 163.143 228.941C 163.796 230.562 163.604 232.144 163.362 233.343C 163.222 234.081 162.382 236.437 162.073 237.281L 163.3 237.734C 163.347 237.605 164.456 234.581 164.647 233.597C 164.925 232.226 165.14 230.398 164.358 228.449C 163.632 226.699 163.022 224.445 163.975 220.949L 162.714 220.605C 161.655 224.48 162.339 226.995 163.143 228.941" style="stroke:none; fill-rule:evenodd; fill:#000000"/>
    <path d="M 167.339 224.913C 167.436 226.671 167.932 228.054 168.296 228.941C 168.936 230.515 168.772 232.054 168.53 233.351C 168.37 234.074 167.534 236.437 167.229 237.285L 168.46 237.73C 168.507 237.601 169.597 234.589 169.811 233.613C 170.097 232.109 170.276 230.339 169.507 228.445C 168.979 227.156 168.714 226.046 168.647 224.843L 167.339 224.913" style="stroke:none; fill-rule:evenodd; fill:#000000"/>
    <path d="M 173.413 215.648C 173.647 216.613 173.737 219.132 173.19 220.355C 171.64 223.859 172.558 226.933 173.386 228.941C 174.046 230.581 173.85 232.152 173.604 233.339C 173.456 234.078 172.624 236.437 172.315 237.285L 173.546 237.73C 173.593 237.601 174.686 234.585 174.89 233.605C 175.147 232.343 175.401 230.437 174.597 228.445C 173.862 226.656 173.042 223.929 174.39 220.886C 175.093 219.304 174.96 216.48 174.686 215.343L 173.413 215.648" style="stroke:none; fill-rule:evenodd; fill:#000000"/>
    <path d="M 178.737 214.089C 179.159 215.074 179.432 218.738 179.065 219.66C 177.413 223.781 177.741 226.179 178.862 228.937C 179.534 230.581 179.343 232.156 179.1 233.339C 178.948 234.078 178.108 236.437 177.8 237.281L 179.03 237.73C 179.077 237.605 180.179 234.589 180.382 233.605C 180.64 232.343 180.89 230.437 180.073 228.441C 179.054 225.937 178.784 223.874 180.28 220.144C 180.815 218.808 180.448 214.765 179.944 213.574L 178.737 214.089" style="stroke:none; fill-rule:evenodd; fill:#000000"/>
    <path d="M 184.061 217.679C 184.093 218.742 183.991 219.417 183.893 219.671C 182.233 223.773 182.565 226.179 183.702 228.941C 184.35 230.542 184.175 232.066 183.917 233.343C 183.768 234.078 182.936 236.437 182.628 237.281L 183.858 237.73C 183.905 237.605 185.003 234.585 185.202 233.601C 185.479 232.218 185.698 230.386 184.913 228.445C 183.882 225.933 183.608 223.87 185.112 220.148C 185.378 219.437 185.39 218.273 185.37 217.644L 184.061 217.679" style="stroke:none; fill-rule:evenodd; fill:#000000"/>
    <path d="M 189.745 217.839C 189.78 218.898 189.682 219.542 189.577 219.792C 187.882 224.031 188.155 226.277 189.253 228.941C 189.925 230.597 189.725 232.16 189.475 233.335C 189.323 234.078 188.487 236.437 188.179 237.281L 189.409 237.73C 189.456 237.605 190.554 234.589 190.757 233.605C 191.022 232.355 191.28 230.456 190.464 228.445C 189.475 226.042 189.257 224.124 190.792 220.285C 191.054 219.648 191.081 218.581 191.054 217.796L 189.745 217.839" style="stroke:none; fill-rule:evenodd; fill:#000000"/>
    <path d="M 194.19 228.636C 194.698 230.394 194.776 232.816 194.526 233.968C 194.382 234.726 193.714 236.617 193.472 237.281L 194.702 237.734C 194.737 237.628 195.616 235.226 195.808 234.23C 196.128 232.749 195.968 230.07 195.444 228.265C 194.788 226.062 194.628 224.652 195.417 222.12L 194.167 221.734C 193.288 224.554 193.483 226.273 194.19 228.636" style="stroke:none; fill-rule:evenodd; fill:#000000"/>
    <path d="M 198.815 227.992L 199.007 228.632C 199.518 230.398 199.6 232.82 199.358 233.972C 199.21 234.722 198.538 236.613 198.292 237.281L 199.522 237.734C 199.558 237.632 200.444 235.23 200.64 234.234C 200.956 232.749 200.784 230.07 200.265 228.269C 200.265 228.265 200.065 227.609 200.065 227.609C 199.542 225.878 199.347 225.234 200.05 222.98L 198.8 222.589C 197.975 225.226 198.272 226.206 198.815 227.992" style="stroke:none; fill-rule:evenodd; fill:#000000"/>
    <path d="M 205.343 217.831C 205.374 219.199 205.225 219.679 205.179 219.796C 203.487 224.011 203.757 226.257 204.843 228.937C 205.526 230.601 205.323 232.16 205.073 233.335C 204.929 234.081 204.097 236.437 203.784 237.281L 205.015 237.734C 205.061 237.605 206.167 234.581 206.354 233.593C 206.62 232.355 206.882 230.456 206.054 228.441C 205.077 226.031 204.858 224.105 206.393 220.285C 206.593 219.792 206.679 218.956 206.651 217.8L 205.343 217.831" style="stroke:none; fill-rule:evenodd; fill:#000000"/>
    <path d="M 208.722 224.91C 208.788 226.265 209.093 227.546 209.679 228.945C 210.335 230.578 210.143 232.152 209.905 233.343C 209.753 234.078 208.921 236.437 208.616 237.285L 209.847 237.73C 209.893 237.601 210.983 234.585 211.186 233.605C 211.464 232.234 211.679 230.41 210.89 228.445C 210.558 227.648 210.108 226.421 210.03 224.847L 208.722 224.91" style="stroke:none; fill-rule:evenodd; fill:#000000"/>
    <path d="M 215.71 216.331C 215.796 218.015 215.612 219.367 215.163 220.347C 213.593 223.855 214.53 226.933 215.37 228.945C 216.018 230.558 215.827 232.144 215.589 233.343C 215.44 234.078 214.6 236.437 214.292 237.281L 215.518 237.734C 215.565 237.605 216.671 234.589 216.874 233.605C 217.147 232.222 217.362 230.39 216.581 228.445C 215.831 226.652 214.995 223.925 216.354 220.89C 216.901 219.703 217.116 218.187 217.018 216.261L 215.71 216.331" style="stroke:none; fill-rule:evenodd; fill:#000000"/>
    <path d="M 220.225 228.632C 220.733 230.351 220.819 232.785 220.581 233.98C 220.436 234.722 219.757 236.613 219.507 237.277L 220.733 237.738C 220.772 237.636 221.671 235.23 221.866 234.234C 222.132 232.894 222.061 230.23 221.483 228.265C 220.839 226.038 220.686 224.62 221.468 222.12L 220.218 221.73C 219.339 224.535 219.522 226.187 220.225 228.632" style="stroke:none; fill-rule:evenodd; fill:#000000"/>
    <path d="M 225.511 228.632C 226.03 230.378 226.108 232.8 225.858 233.968C 225.718 234.726 225.046 236.613 224.8 237.281L 226.026 237.734C 226.065 237.632 226.956 235.226 227.14 234.226C 227.421 232.925 227.362 230.261 226.768 228.261C 226.12 226.031 225.964 224.613 226.749 222.12L 225.503 221.73C 224.62 224.527 224.804 226.183 225.511 228.632" style="stroke:none; fill-rule:evenodd; fill:#000000"/>
    <path d="M 230.964 228.941C 231.616 230.57 231.425 232.148 231.186 233.343C 231.038 234.078 230.198 236.437 229.886 237.281L 231.116 237.734C 231.163 237.605 232.268 234.585 232.468 233.601C 232.745 232.23 232.964 230.406 232.175 228.445C 231.725 227.359 231.237 225.929 231.436 224.464L 230.14 224.288C 229.897 226.062 230.452 227.706 230.964 228.941" style="stroke:none; fill-rule:evenodd; fill:#000000"/>
    <path d="M 235.05 227.617L 235.772 229.96C 236.432 231.546 236.261 233.074 236.003 234.359C 235.862 235.074 235.222 236.691 234.987 237.253L 236.194 237.761C 236.229 237.671 237.093 235.601 237.288 234.613C 237.565 233.222 237.784 231.378 236.987 229.468C 236.991 229.476 236.335 227.359 236.335 227.359L 235.05 227.617" style="stroke:none; fill-rule:evenodd; fill:#000000"/>
    <path d="M 241.765 234.351C 241.612 235.07 240.972 236.691 240.741 237.257L 241.952 237.757C 241.987 237.667 242.835 235.605 243.046 234.62C 243.046 234.62 243.288 232.699 243.288 232.699L 241.979 232.644L 241.765 234.351" style="stroke:none; fill-rule:evenodd; fill:#000000"/>
    <path d="M 130.62 187.358L 128.507 188.206L 145.296 204.722L 147.386 202.597C 147.386 202.597 136.436 191.827 133.847 189.276C 137.202 187.933 151.058 182.382 151.058 182.382L 149.948 179.616L 130.62 187.358" style="stroke:none; fill-rule:evenodd; fill:#000000"/>
    <path d="M 58.8626 202.968C 58.8626 214.035 85.0618 220.007 109.714 220.007C 134.366 220.007 160.565 214.035 160.565 202.968C 160.565 196.218 150.034 190.491 132.39 187.647L 131.917 190.589C 147.268 193.065 157.585 198.042 157.585 202.968C 157.585 209.617 137.925 217.027 109.714 217.027C 81.5032 217.027 61.8431 209.617 61.8431 202.968C 61.8431 198.042 72.1673 193.065 87.5306 190.589L 87.0579 187.647C 69.4016 190.491 58.8626 196.222 58.8626 202.968" style="stroke:none; fill-rule:evenodd; fill:#000000"/>
    <path d="M 93.0501 199.534C 92.9915 199.456 92.9134 199.558 92.9134 199.476C 92.9134 198.186 100.429 197.155 109.714 197.155C 119.018 197.155 126.526 198.186 126.526 199.476C 126.526 199.522 126.518 199.573 126.495 199.62C 126.495 199.62 121.768 201.081 109.956 201.081C 97.097 201.081 93.0501 199.534 93.0501 199.534" style="stroke:none; fill-rule:evenodd; fill:#000000"/>
    <path d="M 126.526 201.499L 126.526 209.245C 126.526 210.55 119.018 211.613 109.714 211.613C 100.429 211.613 92.9134 210.55 92.9134 209.245L 92.9134 201.499C 92.9134 201.499 98.2063 202.999 110.245 202.999C 122.288 202.999 126.526 201.499 126.526 201.499" style="stroke:none; fill-rule:evenodd; fill:#000000"/>
    <path d="M 225.874 66.1794L 217.768 58.2534L 144.925 132.737L 72.0813 58.2534L 63.9759 66.1794L 136.995 140.847L 63.9798 215.515L 72.0852 223.441L 144.925 148.956L 217.768 223.441L 225.874 215.515L 152.854 140.847L 225.874 66.1794" style="stroke:none; fill-rule:evenodd; fill:#d90000"/>
    <path d="M 125.823 238.995L 125.823 241.652L 94.3196 241.652L 94.3196 238.995L 54.3548 238.995L 54.3548 250.55L 266.366 250.55L 266.366 238.995L 125.823 238.995" style="stroke:none; fill-rule:evenodd; fill:#000000"/>
    <path d="M 125.823 241.652L 125.823 226.828L 94.3196 226.828L 94.3196 241.652L 125.823 241.652" style="stroke:none; fill-rule:evenodd; fill:#000000"/>
    <path d="M 29.6204 267.288L 2.62042 267.288" style="stroke:#000000; stroke-width:0.5; fill:none"/>
    <path d="M 38.6204 276.288L 38.6204 303.288" style="stroke:#000000; stroke-width:0.5; fill:none"/>
    <path d="M 29.6204 38.6244L 2.62042 38.6244" style="stroke:#000000; stroke-width:0.5; fill:none"/>
    <path d="M 38.6204 29.6244L 38.6204 2.62042" style="stroke:#000000; stroke-width:0.5; fill:none"/>
    <path d="M 276.288 38.6244L 303.288 38.6244" style="stroke:#000000; stroke-width:0.5; fill:none"/>
    <path d="M 267.288 29.6244L 267.288 2.62042" style="stroke:#000000; stroke-width:0.5; fill:none"/>
    <path d="M 276.288 267.288L 303.288 267.288" style="stroke:#000000; stroke-width:0.5; fill:none"/>
    <path d="M 267.288 276.288L 267.288 303.288" style="stroke:#000000; stroke-width:0.5; fill:none"/>
  </g>
</svg>
